svg/Outline/checkmark-circle.svg

<svg viewBox="0 0 24 24" xmlns="http://www.w3.org/2000/svg" width="24" height="24"><path d="M13.92 8.12a1 1 0 0 1 1.69 1.05l-.05.09-3.69 5.93-.3.47c-.11.14-.3.36-.6.5a1.5 1.5 0 0 1-1.16.02l-.1-.04c-.25-.13-.41-.3-.51-.42q-.17-.2-.33-.46l-1.34-1.92a1 1 0 0 1 1.65-1.14l1.16 1.68 3.52-5.68z"/><path fill-rule="evenodd" d="M12 1A11 11 0 1 1 12 23A11 11 0 0 1 12 1M12 2.5A9.5 9.5 0 1 0 12 21.5A9.5 9.5 0 0 0 12 2.5" clip-rule="evenodd"/></svg>

<svg viewBox="0 0 24 24" xmlns="http://www.w3.org/2000/svg" width="24" height="24"><path d="M13.92 8.12A1 1 0 0 1 15.61 9.17L11.57 15.66C11.46 15.8 11.27 16.02 10.97 16.16A1.5 1.5 0 0 1 9.81 16.18L9.71 16.14C9.46 16.01 9.3 15.84 9.2 15.72Q9.03 15.52 8.87 15.26L7.53 13.34A1 1 0 0 1 9.18 12.2L10.34 13.88L13.86 8.2Z"/><path fill-rule="evenodd" d="M12 1A11 11 0 1 1 12 23A11 11 0 0 1 12 1M12 2.5A9.5 9.5 0 1 0 12 21.5A9.5 9.5 0 0 0 12 2.5" clip-rule="evenodd"/></svg>
